X:1
T:Nu[n] bitten wir
T:Wolff Heintz
T:Source : DDT 34---Leipzig---Breitkopf & Härtel---J.Wolf---1908. First print : Newe Deudsche Geistliche Gesenge---Wittemberg---G.Rhau---1544. Editor : André Vierendeels (04/08/17). 
T:Notes : Original clefs : C1, C3, C4, F4 Original note values have been halved Editorial accidentals above the staff
T:Nu[n] bitten wir
T:©
T:©
T:©
T:©
C:Wolff Heintz
Z:©
%%score [ 1 [ 2 3 ] 4 ]
L:1/8
Q:1/4=120
M:2/2
K:F
V:1 treble nm="Alto" snm="A"
V:2 treble-8 nm="Tenor 1" snm="T 1"
V:3 treble-8 nm="Tenor 2" snm="T 2"
V:4 bass nm="Bass" snm="B"
V:1
 z8 | F8 | G4 G4 | F6 F2 | B4 B4 | A3 G/A/ BAGF | E4 F2 G2- | GF F4 E2 | F4 z2 F2- | F2 ED E2 E2 | %10
w: |Nu|bite- ten|wir den|[heil- gen|Gesist, _ _ _ _ _ _|_ den] hei-|* * li- gen|Geist, Nu|_ _ _ bit- ten|
 F6 G2 | ABcA B2 G2- | GF F4 E2 | F8- | F8 | z4 A4 | c4 d4 | c2 A2 G4 | F3 E DC F2- | %19
w: wir den|hei- * * * * *|* * li- gen|Geist|_|umb|den rech-|ten _ Glau-|* * ben _ al-|
 F2 E2 F2 c2- | c2 BA GF G2 | F4 z4 | z8 | z4 z2 F2 | G2 A2 B2 G2 | A2 GF EF G2 | C2 F3 E ED/E/ | %27
w: |* * * * * ler-|meist,||umb|den rech- ten Glau-||ban al- * ler _ _|
 F4 A2 A2 | A2 G2 A4 | G4 F2 F2 | F2 E2 F4 | E2 E2 F2 F2 | F4 E2 G2 | A2 c3 B A2- | AGAF GA B2- | %35
w: meist, dasz er|uns be- hü-|te, dasz er|uns be- hü-|te an un- serm|En- de, wenn|wir heim- * fah-||
 B2 A2 B2 A2- | AG F4 E2 | F2 C2 D2 F2- | F2 E2 F3 G | A2 F4 E2 | F2 C3 DEF | GABG AB c2- | %42
w: ||ren, aus die- sem|_ E- len- *||de. Ky- * * *||
 c2 F3 E ED/E/ | F2 F,G, A,B,CD | EFGA B2 G2 | GF F4 E2 | F8 |] %47
w: * * ri- e, _ _|_ e- * * * * *||lei- * * *|son.|
V:2
 c8 | d3 c de f2- | f2 ed edcB | A2 d4 c2 | B6 G2 | A2 c4 B2 | c3 B A2 G2 | A2 B2 c4- | c2 BA B4 | %9
w: Nu|bit- * * * *||ten wir den|hei- *|||* * li-|* * * gen|
 c4 z2 c2- | c2 A2 B2 G2- | G2 F2 G4 | A2 B2 c4 | c4 z4 | d4 f4 | g4 f2 d2 | e2 f4 gf | ed f4 e2 | %18
w: Geist, nu|_ bit- ten wir|_ den hei-|* li- gen|Geist|umb den|rech- ten _|Glau- * * *||
 d3 c BAGF | G2 g3 f fe/d/ | e2 f4 e2 | f8 | z4 z2 F2 | G2 A2 B2 d2- | d2 c2 B4 | A6 G2 | %26
w: |ben al- * ler- * *||meist,|umb|den rech- ten Glau-|* * ben|al- *|
 A2 B2 c4- | c4 f2 f2 | f2 e2 f4 | c8- | c8 | z2 c2 c2 c2 | c4 c2 e2 | f2 e3 dcB | c2 A2 B3 c | %35
w: * ler- meist,|_ dasz er|uns be- hü-|te|_|an un- serm|En- de, wenn|wir heim- * * *|* * fah- *|
 de f4 ed | c2 d4 c2 | cBAG F2 F2 | G4 F2 fe | dc d4 cB | A4 A2 G2- | G2 G2 FGAB | c2 d2 c4- | %43
w: |* * ren|aus _ _ _ _ die-|sem E- len- *||* de, aus|_ die- sem _ _ _|_ E- len-|
 c2 A2 FGAB | cded/e/ f2 e2 | d2 B2 c4 | c8 |] %47
w: * de. Ky- * * *|* * * * * * ri-|e, e- lei-|son.|
V:3
 z8 | z8 | z8 | F8 | G4 G4 | F4 D4 | C4 D2 E2 | F4 G4 | F4 z2 F2 | G4 G4 | F4 D4 | C4 D2 E2 | %12
w: |||Nu|bit- ten|wir den|hei- * *|li- gen|Geist, nu|bit- ten|wir den|hei- * *|
 F4 G4 | F8- | F8 | z8 | z8 | z8 | z8 | z8 | A4 c4 | d4 c2 A2 | GABG A2 B2- | B2 A2 G2 FE | %24
w: li- gen|Geist|||||||umb den|rech- * ten|Glau- * * * ben al-||
 DC F4 E2 | F2 c4 B2 | A2 GF G4 | F8 | z8 | z4 A2 A2 | A2 G2 A4 | G2 G2 A2 A2 | A4 G4 | %33
w: ||* * * ler-|meist,||dasz er|uns be- hü-|te an un- serm|En- de,|
 z2 G2 A2 A2- | A2 A2 G4 | D4 D4 | F2 F2 G4 | F4 D4 | C4 D4 | F4 G4 | F4 c4- | c2 B2 A3 G | %42
w: wenn wir heim-|* fah- *|ren aus|die- sem E-|len- *|* de.|Ky- ri|e, e-|* * lei- *|
 A2 B2 G4 | F8 | C4 D2 E2 | F4 G4 | F8 |] %47
w: |son,|Ky- ri- e,|e- lei-|son.|
V:4
 z8 | z8 | C,8 | D,3 C, D,E, F,2- | F,2 E,D, E,4 | F,8 | G,4 F,2 E,2 | D,4 C,2 C,2 | D,4 D,4 | %9
w: ||Nu|bit- * * * *|* * * ten|wir|den heil- li-|gen Geist, nu|bit- ten|
 C,8 | z4 B,,4 | A,,4 G,,4 | D,4 C,4 | F,3 E, D,C, B,,2- | B,,2 A,,G,, F,,2 F,2- | %15
w: wir|den|hei- *|li- gen|Geist _ _ _ _|_ _ _ _ _|
 F,2 E,2 D,2 C,B,, | A,,4 z4 | z8 | z8 | z8 | z8 | D,4 F,4 | G,4 F,2 D,2 | C,4 B,,4- | %24
w: ||||||umb den|rech- * ten|Glau- *|
 B,,2 A,,2 G,,4 | F,,G,,A,,B,, C,D,E,D,/E,/ | F,2 D,2 C,4 | F,,8 | z8 | z2 C,2 F,2 F,2- | %30
w: * * ben|al- * * * * * * * *|* * ler-|meist,||dasz er uns|
 F,2 C,2 F,4 | C,2 C,2 F,2 F,2 | F,4 C,4 | z2 C,2 A,,2 A,,2 | F,,2 F,3 E,/D,/ E,2 | F,4 B,,2 F,2- | %36
w: _ be- hü-|te an un- serm|En- de,|wenn wir heim-|fah- * * * *|ren aus die-|
 F,E,D,C, B,,2 C,2 | F,,2 F,3 G,A,B, | C3 B, A,G, F,2- | F,E,D,C, B,,2 C,2 | F,,3 G,, A,,B,,C,D, | %41
w: * * * * * sem|E- len- * * *|* * de. _ Ky-|* * * * * ri-|e, _ _ _ _ _|
 E,F,G,E, F,3 E,/D,/ | C,2 B,,2 C,4 | F,,8 | z2 C,2 B,,2 C,2 | D,4 C,4 | F,,8 |] %47
w: _ _ _ _ e- * *|* * lei-|son,|Ky- ri- e,|e- lei-|son.|

